X: 2
T: The Goodnatured Man
R: hornpipe
M: 4/4
L: 1/8
K: Gmaj
|:d2|g2bg d2gd|B2dB G2G2|F2AF D2d2|c2B2 B2d2|g2bg d2gd|B2dB G2BG|FGAB cAGF|G2G2 G2:||:Bc|d2de dBGB|c2cd cAFA|GABc defg|edcB A2Bc|d2de dBGB|c2cd cAFA|Ggec BdFA|G2G2 G2:||:(3def|g2bg d2gd|BcdB G2AB|c2ec A2cA|FGAB cdef|g2bg d2gd|BcdB G2AB|cedc BAGF|A2G2 G2:||:Bc|dBdB g2gd|ecec a2ae|fefd gfgb|agfe defd|g2bg d2gd|BcdB G2AB|cedc BAGF|A2G2 G2:|


Tune 312	Setting 23471

